X:1
T:Gilderoy
T:Red-haired bo\.iy
C:anon.
O:Scotland / Ireland / England
R:Hornpipe
Z:Transcribed by Frank Nordberg - http://www.musicaviva.com
%http://abc.musicaviva.com/tunes/scotland/gilderoy/gilderoy-1.abc
M:C
L:1/8
Q:1/4=190
K:Amix
AG|"A"E2A2 ABcd|"A"efec "D"d2cd|"A"e2A2 ABcA|"Em"BGEF G2AG|
"A"E2AG A2cd|"A"efec "D"d2cd|"A"eaab ag"Em"ed|"A"c2A2 A2:|
|:ef|"Em"gfga gfef|"Em"gfec "G"d2cd|"A"edcB ABcA|"Em"BGEF G2AG|
"A"E2AG A2cd|"A"efec "D"d2cd|"A"eaab ag"Em"ed|"A"c2A2 A2:|
W:
W:
W:  From Musica Viva - http://www.musicaviva.com
W:  the Internet center for free sheet music downloads.
